icons/bitbucket.svg

<svg aria-labelledby="simpleicons-bitbucket-icon" role="img" viewBox="0 0 24 24" xmlns="http://www.w3.org/2000/svg"><title id="simpleicons-bitbucket-icon">Bitbucket icon</title><path d="M.778 1.211c-.424-.006-.772.334-.778.758 0 .045.002.09.01.134l3.263 19.811c.084.499.515.867 1.022.872H19.95c.382.004.708-.271.77-.646l3.27-20.03c.068-.418-.216-.813-.635-.881-.045-.008-.089-.011-.133-.01L.778 1.211zM14.52 15.528H9.522L8.17 8.464h7.561l-1.211 7.064z"/></svg>

<?xml version="1.0" standalone="no"?><!-- Generator: Gravit.io --><svg xmlns="http://www.w3.org/2000/svg" xmlns:xlink="http://www.w3.org/1999/xlink" style="isolation:isolate" viewBox="0 0 24 24" width="24" height="24"><path d=" M 0.778 1.211 C 0.354 1.205 0.006 1.545 0 1.969 C 0 2.014 0.002 2.059 0.01 2.103 L 3.273 21.914 C 3.357 22.413 3.788 22.781 4.295 22.786 L 19.95 22.786 C 20.332 22.79 20.658 22.515 20.72 22.14 L 23.99 2.11 C 24.058 1.692 23.774 1.297 23.355 1.229 C 23.31 1.221 23.266 1.218 23.222 1.219 L 0.778 1.211 L 0.778 1.211 L 0.778 1.211 Z  M 14.52 15.528 L 9.522 15.528 L 8.17 8.464 L 15.731 8.464 L 14.52 15.528 L 14.52 15.528 L 14.52 15.528 Z " fill="rgb(27,94,32)"/></svg>
